X: 16421
T: H.G.Abel's Fancy
R: jig
M: 6/8
K: Dmajor
||dcB|"D"ABc de=f|"D"f2d A3|"D"ABc def|"A7"g3 gfg|
"G"g2g "D"f2f|"Em"e2e "D"d2d|"E7"efe dcB|"A"A3 "A7"a2g|
"D"ABc de=f|"D"f2d A3|"D"ABc def|"A7"g3 gfg|
"G"g2e "Em"efg|"D"f2d "Bm"def|"A7"edc ABc|"D"d3 dcB|
"D"A2d dcd|"D"A2f fef|"D"afe dcB|"D"A3 AGA|
"G"g2f "Em"efg|"D"f2e "Bm"def|"E7"efe dcB|"A"A3 "A7"3a2g|
"D"A2d dcd|"D"A2f fef|"D"afe dcB|"D"A3 AGA|
"G"B2c "Em"dcB|"D"A2d fed|"A7"cBA gfe|"D"d3||

